packages/core/src/svgs/tokens/mono/PHONON.svg

<svg width="24" height="24" viewBox="0 0 24 24" fill="none" xmlns="http://www.w3.org/2000/svg">
<path d="M17.1886 8.99447L18.1108 13.0222L19.5385 10.1055L18.6664 6.52225L17.1886 8.99447ZM4.49414 13.7944L5.33303 18.0167L6.73859 14.7778L5.88858 10.9667L4.49414 13.8V13.7944ZM8.66636 19.1445L9.64416 19.0611L10.333 16.0501V7.63336L8.66636 11.3278V19.1445ZM13.6663 16.9223L14.6441 16.2001L15.3331 13.2001V4.85559L13.6663 8.4667V16.9223Z" fill="white"/>
<path d="M8.66668 19.1445C9.94444 19.4612 11.2667 18.7668 11.6111 17.5889L15.3334 4.8556C14.0555 4.53893 12.7333 5.23337 12.3889 6.41116L8.66668 19.1445ZM7.98335 16.4889C7.91101 16.7645 7.78504 17.0231 7.61264 17.25C7.44025 17.4767 7.2248 17.6674 6.97866 17.8107C6.73252 17.9542 6.46049 18.0477 6.17817 18.0859C5.89584 18.1242 5.60876 18.1063 5.33334 18.0333L7.68334 9.17782C7.75568 8.90225 7.88165 8.64366 8.05405 8.41685C8.22644 8.19003 8.44187 7.99943 8.68803 7.85598C8.93417 7.71252 9.20619 7.61902 9.48853 7.58083C9.77086 7.54263 10.058 7.56048 10.3333 7.63337L7.98335 16.4889ZM16.3166 15.3779C16.2443 15.6534 16.1184 15.9119 15.946 16.1388C15.7736 16.3656 15.5582 16.5562 15.312 16.6997C15.0658 16.8431 14.7939 16.9367 14.5116 16.9748C14.2292 17.013 13.9421 16.9951 13.6666 16.9223L16.0167 8.06671C16.089 7.79114 16.215 7.53256 16.3874 7.30573C16.5598 7.07892 16.7753 6.88832 17.0213 6.74487C17.2675 6.60141 17.5396 6.50791 17.8219 6.46971C18.1042 6.43152 18.3912 6.44937 18.6667 6.52226L16.3166 15.3779ZM20.8722 11.5444C20.5555 12.6722 19.3167 13.3389 18.1111 13.0389L19.2333 9.12226C19.5556 7.99448 20.7944 7.32782 22 7.62782L20.8778 11.5444H20.8722ZM2 16.3722C3.20556 16.6722 4.44445 16.0056 4.76667 14.8779L5.88889 10.9611C4.68334 10.6611 3.44445 11.3278 3.12223 12.4556L2 16.3722Z" fill="white"/>
</svg>

<svg xmlns="http://www.w3.org/2000/svg" width="24" height="24" fill="none" viewBox="0 0 24 24">
    <path fill="#fff" d="m17.189 8.994.922 4.028 1.427-2.917-.872-3.583zm-12.695 4.8.839 4.223 1.406-3.24-.85-3.81L4.494 13.8zm4.172 5.35.978-.083.689-3.01V7.632l-1.667 3.695zm5-2.222.978-.722.69-3V4.856l-1.668 3.61z"/>
    <path fill="#fff" d="M8.667 19.145c1.277.316 2.6-.378 2.944-1.556l3.722-12.733c-1.277-.317-2.6.377-2.944 1.555zm-.684-2.656a2.17 2.17 0 0 1-2.65 1.544l2.35-8.855a2.167 2.167 0 0 1 2.65-1.545zm8.334-1.111a2.167 2.167 0 0 1-2.65 1.544l2.35-8.855a2.166 2.166 0 0 1 2.65-1.545zm4.555-3.834c-.317 1.128-1.555 1.795-2.76 1.495l1.121-3.917c.323-1.128 1.561-1.794 2.767-1.494l-1.122 3.916zM2 16.372c1.206.3 2.444-.366 2.767-1.494l1.122-3.917c-1.206-.3-2.445.367-2.767 1.495z"/>
</svg>
